Simply-White-Circles/scalable/apps/remmina.svg

<svg xmlns="http://www.w3.org/2000/svg" width="48" height="48" viewBox="0 0 12.7 12.7"><path fill="#e6e6e6" d="M6.344.073a6.29 6.29 0 0 0-6.29 6.29 6.29 6.29 0 0 0 6.29 6.288 6.29 6.29 0 0 0 6.29-6.289 6.29 6.29 0 0 0-6.29-6.29zm-.018.936a5.407 5.407 0 0 1 5.407 5.407 5.407 5.407 0 0 1-5.407 5.407A5.407 5.407 0 0 1 .92 6.416 5.407 5.407 0 0 1 6.326 1.01zm-2.581.87l-.06 1.635 2.21 1.696L4.2 6.937 8.47 5.18 3.745 1.878zm4.756 3.884L4.23 7.52l4.725 3.302.06-1.636-2.21-1.696L8.5 5.763z"/></svg>

<?xml version="1.0" encoding="UTF-8" standalone="no"?>
<svg
   xmlns:dc="http://purl.org/dc/elements/1.1/"
   xmlns:cc="http://creativecommons.org/ns#"
   xmlns:rdf="http://www.w3.org/1999/02/22-rdf-syntax-ns#"
   xmlns:svg="http://www.w3.org/2000/svg"
   xmlns="http://www.w3.org/2000/svg"
   xmlns:sodipodi="http://sodipodi.sourceforge.net/DTD/sodipodi-0.dtd"
   xmlns:inkscape="http://www.inkscape.org/namespaces/inkscape"
   width="48"
   height="48"
   viewBox="0 0 12.7 12.7"
   version="1.1"
   id="svg4"
   sodipodi:docname="remmina.svg"
   inkscape:version="0.92.4 (5da689c313, 2019-01-14)">
  <metadata
     id="metadata10">
    <rdf:RDF>
      <cc:Work
         rdf:about="">
        <dc:format>image/svg+xml</dc:format>
        <dc:type
           rdf:resource="http://purl.org/dc/dcmitype/StillImage" />
        <dc:title></dc:title>
      </cc:Work>
    </rdf:RDF>
  </metadata>
  <defs
     id="defs8" />
  <sodipodi:namedview
     pagecolor="#ffffff"
     bordercolor="#666666"
     borderopacity="1"
     objecttolerance="10"
     gridtolerance="10"
     guidetolerance="10"
     inkscape:pageopacity="0"
     inkscape:pageshadow="2"
     inkscape:window-width="1087"
     inkscape:window-height="480"
     id="namedview6"
     showgrid="false"
     inkscape:zoom="4.9166667"
     inkscape:cx="2.1355932"
     inkscape:cy="24"
     inkscape:window-x="0"
     inkscape:window-y="25"
     inkscape:window-maximized="0"
     inkscape:current-layer="svg4" />
  <path
     d="m 6.344,0.073 a 6.29,6.29 0 0 0 -6.29,6.29 6.29,6.29 0 0 0 6.29,6.288 6.29,6.29 0 0 0 6.29,-6.289 6.29,6.29 0 0 0 -6.29,-6.29 z M 6.326,1.009 A 5.407,5.407 0 0 1 11.733,6.416 5.407,5.407 0 0 1 6.326,11.823 5.407,5.407 0 0 1 0.92,6.416 5.407,5.407 0 0 1 6.326,1.01 Z M 3.745,1.879 3.685,3.514 5.895,5.21 4.2,6.937 8.47,5.18 3.745,1.878 Z M 8.501,5.763 4.23,7.52 8.955,10.822 9.015,9.186 6.805,7.49 8.5,5.763 Z"
     id="path2"
     inkscape:connector-curvature="0"
     style="fill:#e6e6e6" />
</svg>
